X: 1
T:The Blarney Pilgrim
M:6/8
L:1/8
Q:80
C:arr. Kent Hiestand
S:Jig
K:HP
e|:
{g}ABA{g}ABd|
{gef}e2d{g}efg|
{a}fed{g}edB|  !
{g}dBe{g}dB{G}A|
{g}ABA{g}ABd|
{gef}e2d{g}efg|  !
{a}fed{g}edB|
{g}dBA{GAG}A3:| |:
a{g}a{g}a{g}afd|  !
e{g}de{g}fdB|
a{g}a{g}a{g}afd|
{g}efe{g}dfa|  !
{ag}a2fafd|
{g}ede{g}fdB|
gfd{g}edB|  !
{g}dBe{g}dB{G}A:|
{gef}e2A{gfg}f2A|
{gef}e2A{g}efg|  !
{a}fed{g}edB|
{g}dBe{g}dB{G}A|
{gef}e2A{g}fA{G}A|  !
{g}eA{G}A{g}efg|
{a}fed{g}edB|
{g}dBA{GAG}A3|  !
{gef}e2A{g}fA{G}A|
{g}eA{G}A{g}efg|
{a}fed{g}edB|  !
{g}dBe{g}dB{G}A|
{g}e2{GAG}A{g}f2{GAG}A|
{g}e2{GAG}A{g}efg|  !
{a}fed{g}edB|
{g}dBA{GAG}A3|]
